images/50282881.svg

<?xml version="1.0" encoding="UTF-8"?>
<svg xmlns="http://www.w3.org/2000/svg" xmlns:xlink="http://www.w3.org/1999/xlink" width="300pt" height="300pt" viewBox="0 0 300 300" version="1.1">
<defs>
<g>
<symbol overflow="visible" id="glyph0-0">
<path style="stroke:none;" d="M 0.453125 1.59375 L 0.453125 -6.34375 L 4.953125 -6.34375 L 4.953125 1.59375 Z M 0.953125 1.09375 L 4.453125 1.09375 L 4.453125 -5.84375 L 0.953125 -5.84375 Z M 0.953125 1.09375 "/>
</symbol>
<symbol overflow="visible" id="glyph0-1">
<path style="stroke:none;" d="M 3.546875 -5.953125 C 2.898438 -5.953125 2.382812 -5.710938 2 -5.234375 C 1.625 -4.753906 1.4375 -4.101562 1.4375 -3.28125 C 1.4375 -2.445312 1.625 -1.789062 2 -1.3125 C 2.382812 -0.832031 2.898438 -0.59375 3.546875 -0.59375 C 4.191406 -0.59375 4.703125 -0.832031 5.078125 -1.3125 C 5.453125 -1.789062 5.640625 -2.445312 5.640625 -3.28125 C 5.640625 -4.101562 5.453125 -4.753906 5.078125 -5.234375 C 4.703125 -5.710938 4.191406 -5.953125 3.546875 -5.953125 Z M 3.546875 -6.6875 C 4.460938 -6.6875 5.195312 -6.375 5.75 -5.75 C 6.300781 -5.132812 6.578125 -4.3125 6.578125 -3.28125 C 6.578125 -2.238281 6.300781 -1.410156 5.75 -0.796875 C 5.195312 -0.179688 4.460938 0.125 3.546875 0.125 C 2.617188 0.125 1.878906 -0.179688 1.328125 -0.796875 C 0.773438 -1.410156 0.5 -2.238281 0.5 -3.28125 C 0.5 -4.3125 0.773438 -5.132812 1.328125 -5.75 C 1.878906 -6.375 2.617188 -6.6875 3.546875 -6.6875 Z M 3.546875 -6.6875 "/>
</symbol>
<symbol overflow="visible" id="glyph0-2">
<path style="stroke:none;" d="M 0.890625 -6.5625 L 2.078125 -6.5625 L 4.984375 -1.078125 L 4.984375 -6.5625 L 5.84375 -6.5625 L 5.84375 0 L 4.65625 0 L 1.75 -5.484375 L 1.75 0 L 0.890625 0 Z M 0.890625 -6.5625 "/>
</symbol>
<symbol overflow="visible" id="glyph0-3">
<path style="stroke:none;" d="M 0.890625 -6.5625 L 1.765625 -6.5625 L 1.765625 -3.875 L 5 -3.875 L 5 -6.5625 L 5.890625 -6.5625 L 5.890625 0 L 5 0 L 5 -3.125 L 1.765625 -3.125 L 1.765625 0 L 0.890625 0 Z M 0.890625 -6.5625 "/>
</symbol>
</g>
</defs>
<g id="surface14413">
<rect x="0" y="0" width="300" height="300" style="fill:rgb(100%,100%,100%);fill-opacity:1;stroke:none;"/>
<path style="fill:none;stroke-width:1.2;stroke-linecap:butt;stroke-linejoin:miter;stroke:rgb(100%,0%,0%);stroke-opacity:1;stroke-miterlimit:10;" d="M 53.949219 184.691406 L 44.601562 181.914062 "/>
<path style="fill:none;stroke-width:1.2;stroke-linecap:butt;stroke-linejoin:miter;stroke:rgb(0%,0%,0%);stroke-opacity:1;stroke-miterlimit:10;" d="M 44.601562 181.914062 L 35.25 179.132812 "/>
<path style="fill:none;stroke-width:1.2;stroke-linecap:butt;stroke-linejoin:miter;stroke:rgb(100%,0%,0%);stroke-opacity:1;stroke-miterlimit:10;" d="M 53.949219 184.691406 L 61.03125 177.984375 "/>
<path style="fill:none;stroke-width:1.2;stroke-linecap:butt;stroke-linejoin:miter;stroke:rgb(0%,0%,0%);stroke-opacity:1;stroke-miterlimit:10;" d="M 61.03125 177.984375 L 68.113281 171.277344 "/>
<path style=" stroke:none;fill-rule:nonzero;fill:rgb(100%,100%,100%);fill-opacity:1;" d="M 49.949219 179.191406 L 57.949219 179.191406 L 57.949219 190.191406 L 49.949219 190.191406 Z M 49.949219 179.191406 "/>
<g style="fill:rgb(100%,0%,0%);fill-opacity:1;">
  <use xlink:href="#glyph0-1" x="49.949219" y="187.854492"/>
</g>
<path style="fill:none;stroke-width:1.2;stroke-linecap:butt;stroke-linejoin:miter;stroke:rgb(0%,0%,0%);stroke-opacity:1;stroke-miterlimit:10;" d="M 68.113281 171.277344 L 63.578125 152.300781 "/>
<path style="fill:none;stroke-width:1.2;stroke-linecap:butt;stroke-linejoin:miter;stroke:rgb(0%,0%,0%);stroke-opacity:1;stroke-miterlimit:10;" d="M 72.125 168.3125 L 68.496094 153.132812 "/>
<path style="fill:none;stroke-width:1.2;stroke-linecap:butt;stroke-linejoin:miter;stroke:rgb(0%,0%,0%);stroke-opacity:1;stroke-miterlimit:10;" d="M 86.816406 176.832031 L 68.113281 171.277344 "/>
<path style="fill:none;stroke-width:1.2;stroke-linecap:butt;stroke-linejoin:miter;stroke:rgb(0%,0%,0%);stroke-opacity:1;stroke-miterlimit:10;" d="M 63.578125 152.300781 L 54.226562 149.523438 "/>
<path style="fill:none;stroke-width:1.2;stroke-linecap:butt;stroke-linejoin:miter;stroke:rgb(100%,0%,0%);stroke-opacity:1;stroke-miterlimit:10;" d="M 54.226562 149.523438 L 44.875 146.742188 "/>
<path style="fill:none;stroke-width:1.2;stroke-linecap:butt;stroke-linejoin:miter;stroke:rgb(0%,0%,0%);stroke-opacity:1;stroke-miterlimit:10;" d="M 63.578125 152.300781 L 77.742188 138.882812 "/>
<path style="fill:none;stroke-width:1.2;stroke-linecap:butt;stroke-linejoin:miter;stroke:rgb(100%,0%,0%);stroke-opacity:1;stroke-miterlimit:10;" d="M 44.875 146.742188 L 42.609375 137.257812 "/>
<path style="fill:none;stroke-width:1.2;stroke-linecap:butt;stroke-linejoin:miter;stroke:rgb(0%,0%,0%);stroke-opacity:1;stroke-miterlimit:10;" d="M 42.609375 137.257812 L 40.339844 127.769531 "/>
<path style=" stroke:none;fill-rule:nonzero;fill:rgb(100%,100%,100%);fill-opacity:1;" d="M 40.875 141.242188 L 48.875 141.242188 L 48.875 152.242188 L 40.875 152.242188 Z M 40.875 141.242188 "/>
<g style="fill:rgb(100%,0%,0%);fill-opacity:1;">
  <use xlink:href="#glyph0-1" x="40.875" y="149.905273"/>
</g>
<path style="fill:none;stroke-width:1.2;stroke-linecap:butt;stroke-linejoin:miter;stroke:rgb(0%,0%,0%);stroke-opacity:1;stroke-miterlimit:10;" d="M 77.742188 138.882812 L 96.441406 144.441406 "/>
<path style="fill:none;stroke-width:1.2;stroke-linecap:butt;stroke-linejoin:miter;stroke:rgb(0%,0%,0%);stroke-opacity:1;stroke-miterlimit:10;" d="M 78.304688 143.839844 L 93.265625 148.285156 "/>
<path style="fill:none;stroke-width:1.2;stroke-linecap:butt;stroke-linejoin:miter;stroke:rgb(0%,0%,0%);stroke-opacity:1;stroke-miterlimit:10;" d="M 96.441406 144.441406 L 100.980469 163.417969 "/>
<path style="fill:none;stroke-width:1.2;stroke-linecap:butt;stroke-linejoin:miter;stroke:rgb(0%,0%,0%);stroke-opacity:1;stroke-miterlimit:10;" d="M 96.441406 144.441406 L 110.605469 131.027344 "/>
<path style="fill:none;stroke-width:1.2;stroke-linecap:butt;stroke-linejoin:miter;stroke:rgb(0%,0%,0%);stroke-opacity:1;stroke-miterlimit:10;" d="M 100.980469 163.417969 L 86.816406 176.832031 "/>
<path style="fill:none;stroke-width:1.2;stroke-linecap:butt;stroke-linejoin:miter;stroke:rgb(0%,0%,0%);stroke-opacity:1;stroke-miterlimit:10;" d="M 96.40625 161.425781 L 85.074219 172.160156 "/>
<path style="fill:none;stroke-width:1.2;stroke-linecap:butt;stroke-linejoin:miter;stroke:rgb(0%,0%,0%);stroke-opacity:1;stroke-miterlimit:10;" d="M 86.816406 176.832031 L 89.085938 186.320312 "/>
<path style="fill:none;stroke-width:1.2;stroke-linecap:butt;stroke-linejoin:miter;stroke:rgb(100%,0%,0%);stroke-opacity:1;stroke-miterlimit:10;" d="M 89.085938 186.320312 L 91.351562 195.808594 "/>
<path style="fill:none;stroke-width:1.2;stroke-linecap:butt;stroke-linejoin:miter;stroke:rgb(100%,0%,0%);stroke-opacity:1;stroke-miterlimit:10;" d="M 91.351562 195.808594 L 84.269531 202.515625 "/>
<path style="fill:none;stroke-width:1.2;stroke-linecap:butt;stroke-linejoin:miter;stroke:rgb(0%,0%,0%);stroke-opacity:1;stroke-miterlimit:10;" d="M 84.269531 202.515625 L 77.1875 209.222656 "/>
<path style=" stroke:none;fill-rule:nonzero;fill:rgb(100%,100%,100%);fill-opacity:1;" d="M 87.351562 190.308594 L 95.351562 190.308594 L 95.351562 201.308594 L 87.351562 201.308594 Z M 87.351562 190.308594 "/>
<g style="fill:rgb(100%,0%,0%);fill-opacity:1;">
  <use xlink:href="#glyph0-1" x="87.351562" y="198.97168"/>
</g>
<path style="fill:none;stroke-width:1.2;stroke-linecap:butt;stroke-linejoin:miter;stroke:rgb(0%,0%,0%);stroke-opacity:1;stroke-miterlimit:10;" d="M 112.835938 130.492188 L 110.570312 121.003906 "/>
<path style="fill:none;stroke-width:1.2;stroke-linecap:butt;stroke-linejoin:miter;stroke:rgb(100%,0%,0%);stroke-opacity:1;stroke-miterlimit:10;" d="M 110.570312 121.003906 L 108.300781 111.515625 "/>
<path style="fill:none;stroke-width:1.2;stroke-linecap:butt;stroke-linejoin:miter;stroke:rgb(0%,0%,0%);stroke-opacity:1;stroke-miterlimit:10;" d="M 108.371094 131.558594 L 106.105469 122.074219 "/>
<path style="fill:none;stroke-width:1.2;stroke-linecap:butt;stroke-linejoin:miter;stroke:rgb(100%,0%,0%);stroke-opacity:1;stroke-miterlimit:10;" d="M 106.105469 122.074219 L 103.835938 112.585938 "/>
<path style="fill:none;stroke-width:1.2;stroke-linecap:butt;stroke-linejoin:miter;stroke:rgb(0%,0%,0%);stroke-opacity:1;stroke-miterlimit:10;" d="M 110.605469 131.027344 L 119.957031 133.804688 "/>
<path style="fill:none;stroke-width:1.2;stroke-linecap:butt;stroke-linejoin:miter;stroke:rgb(0%,0%,100%);stroke-opacity:1;stroke-miterlimit:10;" d="M 119.957031 133.804688 L 129.304688 136.582031 "/>
<path style=" stroke:none;fill-rule:nonzero;fill:rgb(100%,100%,100%);fill-opacity:1;" d="M 102.066406 106.550781 L 110.066406 106.550781 L 110.066406 117.550781 L 102.066406 117.550781 Z M 102.066406 106.550781 "/>
<g style="fill:rgb(100%,0%,0%);fill-opacity:1;">
  <use xlink:href="#glyph0-1" x="102.066406" y="115.213867"/>
</g>
<path style="fill:none;stroke-width:1.2;stroke-linecap:butt;stroke-linejoin:miter;stroke:rgb(0%,0%,100%);stroke-opacity:1;stroke-miterlimit:10;" d="M 129.304688 136.582031 L 136.386719 129.875 "/>
<path style="fill:none;stroke-width:1.2;stroke-linecap:butt;stroke-linejoin:miter;stroke:rgb(0%,0%,0%);stroke-opacity:1;stroke-miterlimit:10;" d="M 136.386719 129.875 L 143.46875 123.167969 "/>
<path style=" stroke:none;fill-rule:nonzero;fill:rgb(100%,100%,100%);fill-opacity:1;" d="M 122.304688 131.082031 L 136.304688 131.082031 L 136.304688 142.082031 L 122.304688 142.082031 Z M 122.304688 131.082031 "/>
<g style="fill:rgb(0%,0%,100%);fill-opacity:1;">
  <use xlink:href="#glyph0-2" x="122.304688" y="139.745117"/>
  <use xlink:href="#glyph0-3" x="129.282227" y="139.745117"/>
</g>
<path style="fill:none;stroke-width:1.2;stroke-linecap:butt;stroke-linejoin:miter;stroke:rgb(0%,0%,0%);stroke-opacity:1;stroke-miterlimit:10;" d="M 143.46875 123.167969 L 162.171875 128.722656 "/>
<path style="fill:none;stroke-width:1.2;stroke-linecap:butt;stroke-linejoin:miter;stroke:rgb(0%,0%,0%);stroke-opacity:1;stroke-miterlimit:10;" d="M 146.648438 119.320312 L 161.609375 123.769531 "/>
<path style="fill:none;stroke-width:1.2;stroke-linecap:butt;stroke-linejoin:miter;stroke:rgb(0%,0%,0%);stroke-opacity:1;stroke-miterlimit:10;" d="M 138.933594 104.191406 L 143.46875 123.167969 "/>
<path style="fill:none;stroke-width:1.2;stroke-linecap:butt;stroke-linejoin:miter;stroke:rgb(0%,0%,0%);stroke-opacity:1;stroke-miterlimit:10;" d="M 162.171875 128.722656 L 176.335938 115.308594 "/>
<path style="fill:none;stroke-width:1.2;stroke-linecap:butt;stroke-linejoin:miter;stroke:rgb(0%,0%,0%);stroke-opacity:1;stroke-miterlimit:10;" d="M 176.335938 115.308594 L 185.683594 118.085938 "/>
<path style="fill:none;stroke-width:1.2;stroke-linecap:butt;stroke-linejoin:miter;stroke:rgb(0%,0%,100%);stroke-opacity:1;stroke-miterlimit:10;" d="M 185.683594 118.085938 L 195.035156 120.867188 "/>
<path style="fill:none;stroke-width:1.2;stroke-linecap:butt;stroke-linejoin:miter;stroke:rgb(0%,0%,0%);stroke-opacity:1;stroke-miterlimit:10;" d="M 176.335938 115.308594 L 171.796875 96.332031 "/>
<path style="fill:none;stroke-width:1.2;stroke-linecap:butt;stroke-linejoin:miter;stroke:rgb(0%,0%,0%);stroke-opacity:1;stroke-miterlimit:10;" d="M 171.414062 114.476562 L 167.785156 99.296875 "/>
<path style="fill:none;stroke-width:1.2;stroke-linecap:butt;stroke-linejoin:miter;stroke:rgb(0%,0%,100%);stroke-opacity:1;stroke-miterlimit:10;" d="M 195.035156 120.867188 L 197.304688 130.351562 "/>
<path style="fill:none;stroke-width:1.2;stroke-linecap:butt;stroke-linejoin:miter;stroke:rgb(0%,0%,0%);stroke-opacity:1;stroke-miterlimit:10;" d="M 197.304688 130.351562 L 199.574219 139.839844 "/>
<path style=" stroke:none;fill-rule:nonzero;fill:rgb(100%,100%,100%);fill-opacity:1;" d="M 188.035156 115.367188 L 202.035156 115.367188 L 202.035156 126.367188 L 188.035156 126.367188 Z M 188.035156 115.367188 "/>
<g style="fill:rgb(0%,0%,100%);fill-opacity:1;">
  <use xlink:href="#glyph0-2" x="188.035156" y="124.030273"/>
  <use xlink:href="#glyph0-3" x="195.012695" y="124.030273"/>
</g>
<path style="fill:none;stroke-width:1.2;stroke-linecap:butt;stroke-linejoin:miter;stroke:rgb(0%,0%,0%);stroke-opacity:1;stroke-miterlimit:10;" d="M 197.992188 138.171875 L 190.914062 144.882812 "/>
<path style="fill:none;stroke-width:1.2;stroke-linecap:butt;stroke-linejoin:miter;stroke:rgb(100%,0%,0%);stroke-opacity:1;stroke-miterlimit:10;" d="M 190.914062 144.882812 L 183.832031 151.589844 "/>
<path style="fill:none;stroke-width:1.2;stroke-linecap:butt;stroke-linejoin:miter;stroke:rgb(0%,0%,0%);stroke-opacity:1;stroke-miterlimit:10;" d="M 201.152344 141.507812 L 194.070312 148.214844 "/>
<path style="fill:none;stroke-width:1.2;stroke-linecap:butt;stroke-linejoin:miter;stroke:rgb(100%,0%,0%);stroke-opacity:1;stroke-miterlimit:10;" d="M 194.070312 148.214844 L 186.988281 154.921875 "/>
<path style="fill:none;stroke-width:1.2;stroke-linecap:butt;stroke-linejoin:miter;stroke:rgb(0%,0%,0%);stroke-opacity:1;stroke-miterlimit:10;" d="M 199.574219 139.839844 L 218.273438 145.398438 "/>
<path style=" stroke:none;fill-rule:nonzero;fill:rgb(100%,100%,100%);fill-opacity:1;" d="M 177.410156 147.757812 L 185.410156 147.757812 L 185.410156 158.757812 L 177.410156 158.757812 Z M 177.410156 147.757812 "/>
<g style="fill:rgb(100%,0%,0%);fill-opacity:1;">
  <use xlink:href="#glyph0-1" x="177.410156" y="156.420898"/>
</g>
<path style="fill:none;stroke-width:1.2;stroke-linecap:butt;stroke-linejoin:miter;stroke:rgb(0%,0%,0%);stroke-opacity:1;stroke-miterlimit:10;" d="M 218.273438 145.398438 L 222.8125 164.371094 "/>
<path style="fill:none;stroke-width:1.2;stroke-linecap:butt;stroke-linejoin:miter;stroke:rgb(0%,0%,0%);stroke-opacity:1;stroke-miterlimit:10;" d="M 223.191406 146.226562 L 226.820312 161.40625 "/>
<path style="fill:none;stroke-width:1.2;stroke-linecap:butt;stroke-linejoin:miter;stroke:rgb(0%,0%,0%);stroke-opacity:1;stroke-miterlimit:10;" d="M 232.4375 131.980469 L 218.273438 145.398438 "/>
<path style="fill:none;stroke-width:1.2;stroke-linecap:butt;stroke-linejoin:miter;stroke:rgb(0%,0%,0%);stroke-opacity:1;stroke-miterlimit:10;" d="M 222.8125 164.371094 L 241.511719 169.929688 "/>
<path style="fill:none;stroke-width:1.2;stroke-linecap:butt;stroke-linejoin:miter;stroke:rgb(0%,0%,0%);stroke-opacity:1;stroke-miterlimit:10;" d="M 241.511719 169.929688 L 243.78125 179.417969 "/>
<path style="fill:none;stroke-width:1.2;stroke-linecap:butt;stroke-linejoin:miter;stroke:rgb(0%,0%,100%);stroke-opacity:1;stroke-miterlimit:10;" d="M 243.78125 179.417969 L 246.050781 188.902344 "/>
<path style="fill:none;stroke-width:1.2;stroke-linecap:butt;stroke-linejoin:miter;stroke:rgb(0%,0%,0%);stroke-opacity:1;stroke-miterlimit:10;" d="M 241.511719 169.929688 L 255.675781 156.511719 "/>
<path style="fill:none;stroke-width:1.2;stroke-linecap:butt;stroke-linejoin:miter;stroke:rgb(0%,0%,0%);stroke-opacity:1;stroke-miterlimit:10;" d="M 239.769531 165.253906 L 251.101562 154.523438 "/>
<path style="fill:none;stroke-width:1.2;stroke-linecap:butt;stroke-linejoin:miter;stroke:rgb(0%,0%,100%);stroke-opacity:1;stroke-miterlimit:10;" d="M 246.050781 188.902344 L 238.96875 195.613281 "/>
<path style="fill:none;stroke-width:1.2;stroke-linecap:butt;stroke-linejoin:miter;stroke:rgb(0%,0%,0%);stroke-opacity:1;stroke-miterlimit:10;" d="M 238.96875 195.613281 L 231.886719 202.320312 "/>
<path style="fill:none;stroke-width:1.2;stroke-linecap:butt;stroke-linejoin:miter;stroke:rgb(0%,0%,100%);stroke-opacity:1;stroke-miterlimit:10;" d="M 246.050781 188.902344 L 255.398438 191.683594 "/>
<path style="fill:none;stroke-width:1.2;stroke-linecap:butt;stroke-linejoin:miter;stroke:rgb(0%,0%,0%);stroke-opacity:1;stroke-miterlimit:10;" d="M 255.398438 191.683594 L 264.75 194.460938 "/>
<path style=" stroke:none;fill-rule:nonzero;fill:rgb(100%,100%,100%);fill-opacity:1;" d="M 243.050781 183.402344 L 250.050781 183.402344 L 250.050781 194.402344 L 243.050781 194.402344 Z M 243.050781 183.402344 "/>
<g style="fill:rgb(0%,0%,100%);fill-opacity:1;">
  <use xlink:href="#glyph0-2" x="243.050781" y="192.06543"/>
</g>
<path style="fill:none;stroke-width:1.2;stroke-linecap:butt;stroke-linejoin:miter;stroke:rgb(0%,0%,0%);stroke-opacity:1;stroke-miterlimit:10;" d="M 255.675781 156.511719 L 251.136719 137.539062 "/>
<path style="fill:none;stroke-width:1.2;stroke-linecap:butt;stroke-linejoin:miter;stroke:rgb(0%,0%,0%);stroke-opacity:1;stroke-miterlimit:10;" d="M 251.136719 137.539062 L 232.4375 131.980469 "/>
<path style="fill:none;stroke-width:1.2;stroke-linecap:butt;stroke-linejoin:miter;stroke:rgb(0%,0%,0%);stroke-opacity:1;stroke-miterlimit:10;" d="M 247.960938 141.382812 L 233 136.9375 "/>
<path style="fill:none;stroke-width:1.2;stroke-linecap:butt;stroke-linejoin:miter;stroke:rgb(0%,0%,0%);stroke-opacity:1;stroke-miterlimit:10;" d="M 171.796875 96.332031 L 153.09375 90.777344 "/>
<path style="fill:none;stroke-width:1.2;stroke-linecap:butt;stroke-linejoin:miter;stroke:rgb(0%,0%,0%);stroke-opacity:1;stroke-miterlimit:10;" d="M 153.09375 90.777344 L 138.933594 104.191406 "/>
<path style="fill:none;stroke-width:1.2;stroke-linecap:butt;stroke-linejoin:miter;stroke:rgb(0%,0%,0%);stroke-opacity:1;stroke-miterlimit:10;" d="M 154.835938 95.449219 L 143.503906 106.183594 "/>
<path style="fill:none;stroke-width:1.2;stroke-linecap:butt;stroke-linejoin:miter;stroke:rgb(0%,0%,0%);stroke-opacity:1;stroke-miterlimit:10;" d="M 138.933594 104.191406 L 120.230469 98.632812 "/>
</g>
</svg>

<svg xmlns="http://www.w3.org/2000/svg" xmlns:xlink="http://www.w3.org/1999/xlink" width="300pt" height="300pt" viewBox="0 0 300 300"><defs><symbol overflow="visible"><path d="M.453 1.594v-7.938h4.5v7.938zm.5-.5h3.5v-6.938h-3.5zm0 0"/></symbol><symbol overflow="visible" id="a"><path d="M3.547-5.953c-.65 0-1.164.242-1.547.72-.375.48-.563 1.13-.563 1.952 0 .835.188 1.49.563 1.967.383.48.898.72 1.547.72.644 0 1.156-.24 1.53-.72.376-.476.564-1.132.564-1.968 0-.822-.187-1.474-.562-1.954-.375-.477-.887-.72-1.53-.72zm0-.734c.914 0 1.648.312 2.203.937.55.617.828 1.438.828 2.47 0 1.042-.277 1.87-.828 2.483-.555.617-1.29.922-2.203.922-.93 0-1.668-.305-2.22-.922C.774-1.41.5-2.237.5-3.28c0-1.033.273-1.853.828-2.47.55-.625 1.29-.938 2.22-.938zm0 0"/></symbol><symbol overflow="visible" id="b"><path d="M.89-6.563H2.08l2.906 5.485v-5.484h.86V0H4.656L1.75-5.484V0H.89zm0 0"/></symbol><symbol overflow="visible" id="c"><path d="M.89-6.563h.876v2.688H5v-2.688h.89V0H5v-3.125H1.766V0H.89zm0 0"/></symbol></defs><g><path fill="#fff" d="M0 0h300v300H0z"/><path d="M53.95 184.69l-9.348-2.776" stroke-width="1.2" stroke="#f00" stroke-miterlimit="10" fill="none"/><path d="M44.602 181.914l-9.352-2.78" stroke-width="1.2" stroke="#000" stroke-miterlimit="10" fill="none"/><path d="M53.95 184.69l7.08-6.706" stroke-width="1.2" stroke="#f00" stroke-miterlimit="10" fill="none"/><path d="M61.03 177.984l7.083-6.707" stroke-width="1.2" stroke="#000" stroke-miterlimit="10" fill="none"/><path d="M49.95 179.19h8v11h-8zm0 0" fill="#fff"/><use xlink:href="#a" x="49.949" y="187.854" fill="#f00"/><path d="M68.113 171.277L63.578 152.3M72.125 168.313l-3.63-15.18M86.816 176.832l-18.703-5.555M63.578 152.3l-9.35-2.777" stroke-width="1.2" stroke="#000" stroke-miterlimit="10" fill="none"/><path d="M54.227 149.523l-9.352-2.78" stroke-width="1.2" stroke="#f00" stroke-miterlimit="10" fill="none"/><path d="M63.578 152.3l14.164-13.417" stroke-width="1.2" stroke="#000" stroke-miterlimit="10" fill="none"/><path d="M44.875 146.742l-2.266-9.484" stroke-width="1.2" stroke="#f00" stroke-miterlimit="10" fill="none"/><path d="M42.61 137.258l-2.27-9.488" stroke-width="1.2" stroke="#000" stroke-miterlimit="10" fill="none"/><path d="M40.875 141.242h8v11h-8zm0 0" fill="#fff"/><use xlink:href="#a" x="40.875" y="149.905" fill="#f00"/><path d="M77.742 138.883l18.7 5.558M78.305 143.84l14.96 4.445M96.44 144.44l4.54 18.978M96.44 144.44l14.165-13.413M100.98 163.418l-14.164 13.414M96.406 161.426L85.074 172.16M86.816 176.832l2.27 9.488" stroke-width="1.2" stroke="#000" stroke-miterlimit="10" fill="none"/><path d="M89.086 186.32l2.266 9.49M91.352 195.81l-7.082 6.706" stroke-width="1.2" stroke="#f00" stroke-miterlimit="10" fill="none"/><path d="M84.27 202.516l-7.082 6.707" stroke-width="1.2" stroke="#000" stroke-miterlimit="10" fill="none"/><path d="M87.352 190.31h8v11h-8zm0 0" fill="#fff"/><use xlink:href="#a" x="87.352" y="198.972" fill="#f00"/><path d="M112.836 130.492l-2.266-9.488" stroke-width="1.2" stroke="#000" stroke-miterlimit="10" fill="none"/><path d="M110.57 121.004l-2.27-9.488" stroke-width="1.2" stroke="#f00" stroke-miterlimit="10" fill="none"/><path d="M108.37 131.56l-2.265-9.486" stroke-width="1.2" stroke="#000" stroke-miterlimit="10" fill="none"/><path d="M106.105 122.074l-2.27-9.488" stroke-width="1.2" stroke="#f00" stroke-miterlimit="10" fill="none"/><path d="M110.605 131.027l9.352 2.778" stroke-width="1.2" stroke="#000" stroke-miterlimit="10" fill="none"/><path d="M119.957 133.805l9.348 2.777" stroke-width="1.2" stroke="#00f" stroke-miterlimit="10" fill="none"/><path d="M102.066 106.55h8v11h-8zm0 0" fill="#fff"/><use xlink:href="#a" x="102.066" y="115.214" fill="#f00"/><path d="M129.305 136.582l7.082-6.707" stroke-width="1.2" stroke="#00f" stroke-miterlimit="10" fill="none"/><path d="M136.387 129.875l7.082-6.707" stroke-width="1.2" stroke="#000" stroke-miterlimit="10" fill="none"/><path d="M122.305 131.082h14v11h-14zm0 0" fill="#fff"/><g fill="#00f"><use xlink:href="#b" x="122.305" y="139.745"/><use xlink:href="#c" x="129.282" y="139.745"/></g><path d="M143.47 123.168l18.702 5.555M146.648 119.32l14.96 4.45M138.934 104.19l4.535 18.978M162.172 128.723l14.164-13.414M176.336 115.31l9.348 2.776" stroke-width="1.2" stroke="#000" stroke-miterlimit="10" fill="none"/><path d="M185.684 118.086l9.35 2.78" stroke-width="1.2" stroke="#00f" stroke-miterlimit="10" fill="none"/><path d="M176.336 115.31l-4.54-18.978M171.414 114.477l-3.63-15.18" stroke-width="1.2" stroke="#000" stroke-miterlimit="10" fill="none"/><path d="M195.035 120.867l2.27 9.485" stroke-width="1.2" stroke="#00f" stroke-miterlimit="10" fill="none"/><path d="M197.305 130.352l2.27 9.488" stroke-width="1.2" stroke="#000" stroke-miterlimit="10" fill="none"/><path d="M188.035 115.367h14v11h-14zm0 0" fill="#fff"/><g fill="#00f"><use xlink:href="#b" x="188.035" y="124.03"/><use xlink:href="#c" x="195.013" y="124.03"/></g><path d="M197.992 138.172l-7.078 6.71" stroke-width="1.2" stroke="#000" stroke-miterlimit="10" fill="none"/><path d="M190.914 144.883l-7.082 6.707" stroke-width="1.2" stroke="#f00" stroke-miterlimit="10" fill="none"/><path d="M201.152 141.508l-7.082 6.707" stroke-width="1.2" stroke="#000" stroke-miterlimit="10" fill="none"/><path d="M194.07 148.215l-7.082 6.707" stroke-width="1.2" stroke="#f00" stroke-miterlimit="10" fill="none"/><path d="M199.574 139.84l18.7 5.558" stroke-width="1.2" stroke="#000" stroke-miterlimit="10" fill="none"/><path d="M177.41 147.758h8v11h-8zm0 0" fill="#fff"/><use xlink:href="#a" x="177.41" y="156.421" fill="#f00"/><path d="M218.273 145.398l4.54 18.973M223.19 146.227l3.63 15.18M232.438 131.98l-14.165 13.418M222.813 164.37l18.7 5.56M241.512 169.93l2.27 9.488" stroke-width="1.2" stroke="#000" stroke-miterlimit="10" fill="none"/><path d="M243.78 179.418l2.27 9.484" stroke-width="1.2" stroke="#00f" stroke-miterlimit="10" fill="none"/><path d="M241.512 169.93l14.164-13.418M239.77 165.254l11.332-10.73" stroke-width="1.2" stroke="#000" stroke-miterlimit="10" fill="none"/><path d="M246.05 188.902l-7.08 6.71" stroke-width="1.2" stroke="#00f" stroke-miterlimit="10" fill="none"/><path d="M238.97 195.613l-7.083 6.707" stroke-width="1.2" stroke="#000" stroke-miterlimit="10" fill="none"/><path d="M246.05 188.902l9.348 2.782" stroke-width="1.2" stroke="#00f" stroke-miterlimit="10" fill="none"/><path d="M255.398 191.684l9.352 2.777" stroke-width="1.2" stroke="#000" stroke-miterlimit="10" fill="none"/><path d="M243.05 183.402h7v11h-7zm0 0" fill="#fff"/><use xlink:href="#b" x="243.051" y="192.065" fill="#00f"/><path d="M255.676 156.512l-4.54-18.973M251.137 137.54l-18.7-5.56M247.96 141.383L233 136.937M171.797 96.332l-18.703-5.555M153.094 90.777l-14.16 13.414M154.836 95.45l-11.332 10.734M138.934 104.19l-18.704-5.557" stroke-width="1.2" stroke="#000" stroke-miterlimit="10" fill="none"/></g></svg>
